X: 392
T: Mrs B. Jolly
C: Bert Murray
R: strathspey
B: Bert Murray's "Bon Accord Collection" 1999 p.39
%
Z: 2011 John Chambers <jc:trillian.mit.edu>
M: C
L: 1/8
K: A
^E |\
A>Bc>B A2(.E>.A) | F>E F<A E2(ED) | C>EA>c e2(.c>.A) | d>ed>c B2(.A>.B) |
c>d c<e A2(.E>.A) | F>Ad>F E2 (E/F/G) | A2(.e>.c) B>A B<c | A2 (B/A/G) A3 ||
ue |\
a2(.a>.g) a>e c<e | a2(.a>.e) f2 (e/f/g) | a2(.a>.g) a>ec>e | f<a e>c B2 (e/f/g) |
a2(.a>.g) a>ec>A | d>cd>e f2 (a/g/f) | e>cA>c d>BG>B | A2 (B/A/G) A3 |]

%%sep 2 1 500

